flaticon/arrows/curved.svg

<svg xmlns="http://www.w3.org/2000/svg" width="32" height="32" viewBox="0 0 24 24">
    <path d="M20.398438 10.398438C20.398438 10.179688 20.222656 10 20 10 19.777344 10 19.601562 10.179688 19.601562 10.398438L19.601562 11.199219C19.601562 11.421875 19.777344 11.597656 20 11.597656 20.222656 11.597656 20.398438 11.421875 20.398438 11.199219zM20.398438 12.800781C20.398438 12.578125 20.222656 12.398438 20 12.398438 19.777344 12.398438 19.601562 12.578125 19.601562 12.800781L19.601562 13.597656C19.601562 13.820312 19.777344 14 20 14 20.222656 14 20.398438 13.820312 20.398438 13.597656zM20.398438 15.199219C20.398438 14.976562 20.222656 14.800781 20 14.800781 19.777344 14.800781 19.601562 14.976562 19.601562 15.199219L19.601562 16C19.601562 16.21875 19.777344 16.398438 20 16.398438 20.222656 16.398438 20.398438 16.21875 20.398438 16zM20 17.199219C19.777344 17.199219 19.601562 17.378906 19.601562 17.597656L19.601562 18.398438C19.601562 18.621094 19.777344 18.800781 20 18.800781 20.222656 18.800781 20.398438 18.621094 20.398438 18.398438L20.398438 17.597656C20.398438 17.378906 20.222656 17.199219 20 17.199219zM20.398438 8C20.398438 7.777344 20.222656 7.597656 20 7.597656 19.777344 7.597656 19.601562 7.777344 19.601562 8L19.601562 8.800781C19.601562 9.019531 19.777344 9.199219 20 9.199219 20.222656 9.199219 20.398438 9.019531 20.398438 8.800781zM19.601562 5.597656L19.601562 6.398438C19.601562 6.621094 19.777344 6.800781 20 6.800781 20.222656 6.800781 20.398438 6.621094 20.398438 6.398438L20.398438 5.597656C20.398438 5.378906 20.222656 5.199219 20 5.199219 19.777344 5.199219 19.601562 5.378906 19.601562 5.597656zM16.28125 1.589844C16.273438 1.367188 16.089844 1.195312 15.871094 1.199219 15.574219 1.210938 15.28125 1.246094 15 1.3125 14.785156 1.363281 14.652344 1.582031 14.703125 1.796875 14.746094 1.980469 14.910156 2.105469 15.089844 2.105469 15.121094 2.105469 15.152344 2.101562 15.183594 2.09375 15.414062 2.039062 15.652344 2.007812 15.894531 2 16.113281 1.992188 16.289062 1.808594 16.28125 1.589844zM19.316406 4.199219C19.378906 4.351562 19.527344 4.441406 19.683594 4.441406 19.734375 4.441406 19.789062 4.433594 19.839844 4.410156 20.042969 4.324219 20.136719 4.089844 20.050781 3.886719 19.9375 3.617188 19.792969 3.355469 19.628906 3.117188 19.5 2.933594 19.253906 2.886719 19.070312 3.011719 18.890625 3.140625 18.84375 3.386719 18.96875 3.570312 19.105469 3.765625 19.222656 3.980469 19.316406 4.199219zM13.410156 2.046875C13.175781 2.21875 12.953125 2.417969 12.757812 2.632812 12.609375 2.792969 12.621094 3.046875 12.78125 3.195312 12.859375 3.269531 12.957031 3.300781 13.050781 3.300781 13.160156 3.300781 13.269531 3.257812 13.347656 3.171875 13.507812 2.996094 13.691406 2.835938 13.882812 2.691406 14.0625 2.5625 14.101562 2.3125 13.96875 2.132812 13.839844 1.957031 13.589844 1.914062 13.410156 2.046875zM12.367188 3.886719C12.160156 3.8125 11.929688 3.921875 11.855469 4.128906 11.753906 4.402344 11.683594 4.691406 11.644531 4.980469 11.625 5.101562 11.667969 5.214844 11.742188 5.296875 11.65625 5.371094 11.601562 5.476562 11.601562 5.597656L11.601562 18.398438C11.601562 20.382812 9.984375 22 8 22 6.015625 22 4.398438 20.382812 4.398438 18.398438L4.398438 6.566406 7.316406 9.480469C7.394531 9.558594 7.496094 9.597656 7.601562 9.597656 7.703125 9.597656 7.804688 9.558594 7.882812 9.480469 8.039062 9.324219 8.039062 9.074219 7.882812 8.917969L4.28125 5.316406C4.246094 5.28125 4.203125 5.25 4.152344 5.230469 4.054688 5.191406 3.945312 5.191406 3.847656 5.230469 3.796875 5.25 3.753906 5.28125 3.71875 5.316406L.117188 8.917969C-.0390625 9.074219-.0390625 9.324219.117188 9.480469.195312 9.558594.296875 9.597656.398438 9.597656.503906 9.597656.605469 9.558594.683594 9.480469L3.601562 6.566406 3.601562 18.398438C3.601562 20.824219 5.574219 22.800781 8 22.800781 10.425781 22.800781 12.398438 20.824219 12.398438 18.398438L12.398438 5.597656C12.398438 5.5 12.359375 5.410156 12.300781 5.339844 12.371094 5.28125 12.421875 5.195312 12.4375 5.09375 12.46875 4.855469 12.527344 4.621094 12.609375 4.398438 12.683594 4.1875 12.574219 3.960938 12.367188 3.886719zM17.300781 2.246094C17.523438 2.332031 17.738281 2.441406 17.941406 2.570312 18.007812 2.613281 18.082031 2.636719 18.15625 2.636719 18.289062 2.636719 18.417969 2.570312 18.492188 2.453125 18.613281 2.265625 18.558594 2.019531 18.375 1.898438 18.128906 1.738281 17.863281 1.605469 17.59375 1.5 17.386719 1.417969 17.15625 1.519531 17.074219 1.726562 16.992188 1.933594 17.09375 2.164062 17.300781 2.246094zM17.300781 2.246094"/>
    <path d="M 23.882812 16.917969 C 23.726562 16.761719 23.472656 16.761719 23.316406 16.917969 L 20 20.234375 L 16.683594 16.917969 C 16.527344 16.761719 16.273438 16.761719 16.117188 16.917969 C 15.960938 17.074219 15.960938 17.324219 16.117188 17.480469 L 19.71875 21.082031 C 19.796875 21.160156 19.898438 21.199219 20 21.199219 C 20.101562 21.199219 20.203125 21.160156 20.28125 21.082031 L 23.882812 17.480469 C 24.039062 17.324219 24.039062 17.074219 23.882812 16.917969 Z M 23.882812 16.917969"/>
</svg>

<svg xmlns="http://www.w3.org/2000/svg" width="32" height="32" viewBox="0 0 24 24">
    <path d="M20.398 10.398a.398.398 0 1 0-.796 0v.801c0 .223.175.399.398.399a.395.395 0 0 0 .398-.399zm0 0M20.398 12.8a.398.398 0 1 0-.796 0v.798a.398.398 0 1 0 .796 0zm0 0M20.398 15.2a.395.395 0 0 0-.398-.4.395.395 0 0 0-.398.4v.8a.398.398 0 1 0 .796 0zm0 0M20 17.2a.398.398 0 0 0-.398.398v.8a.398.398 0 1 0 .796 0v-.8a.398.398 0 0 0-.398-.399zm0 0M20.398 8a.398.398 0 1 0-.796 0v.8a.398.398 0 1 0 .796 0zm0 0M19.602 5.598v.8a.398.398 0 1 0 .796 0v-.8a.398.398 0 1 0-.796 0zm0 0M16.281 1.59a.404.404 0 0 0-.41-.39c-.297.01-.59.046-.871.113a.403.403 0 0 0 .09.792.385.385 0 0 0 .094-.011 3.58 3.58 0 0 1 .71-.094.4.4 0 0 0 .387-.41zm0 0M19.316 4.2c.063.152.211.241.368.241a.399.399 0 0 0 .367-.555 4.322 4.322 0 0 0-.422-.769.402.402 0 0 0-.559-.105.405.405 0 0 0-.101.558c.136.196.254.41.347.63zm0 0M13.41 2.047a4.424 4.424 0 0 0-.652.586.4.4 0 0 0 .59.539c.16-.176.343-.336.535-.48a.396.396 0 0 0 .086-.56.4.4 0 0 0-.559-.085zm0 0M12.367 3.887a.402.402 0 0 0-.512.242 3.994 3.994 0 0 0-.21.851.38.38 0 0 0 .097.317.394.394 0 0 0-.14.3v12.801A3.608 3.608 0 0 1 8 22a3.608 3.608 0 0 1-3.602-3.602V6.566L7.316 9.48a.399.399 0 0 0 .567 0 .396.396 0 0 0 0-.562L4.28 5.316a.373.373 0 0 0-.129-.086.41.41 0 0 0-.304 0 .373.373 0 0 0-.13.086l-3.6 3.602a.396.396 0 0 0 0 .562.399.399 0 0 0 .566 0l2.918-2.914v11.832A4.406 4.406 0 0 0 8 22.801a4.406 4.406 0 0 0 4.398-4.403v-12.8a.405.405 0 0 0-.097-.258.397.397 0 0 0 .136-.246c.032-.239.09-.473.172-.696a.4.4 0 0 0-.242-.511zm0 0M17.3 2.246c.223.086.438.195.641.324.067.043.141.067.215.067a.402.402 0 0 0 .219-.738 4.33 4.33 0 0 0-.781-.399.4.4 0 0 0-.52.227.4.4 0 0 0 .227.52zm0 0"/>
    <path d="M23.883 16.918a.4.4 0 0 0-.567 0L20 20.234l-3.316-3.316a.4.4 0 0 0-.567 0 .396.396 0 0 0 0 .562l3.602 3.602a.396.396 0 0 0 .562 0l3.602-3.602a.396.396 0 0 0 0-.562zm0 0"/>
</svg>
